img/advantages-3.svg

<svg width="64" height="66" viewBox="0 0 64 66" fill="none" xmlns="http://www.w3.org/2000/svg">
<path d="M58.2375 61.2692H49.4375C48.5 61.2692 47.7375 60.4828 47.7375 59.516C47.7375 58.5492 48.5 57.7629 49.4375 57.7629H58.2375C59.55 57.7629 60.6125 56.6672 60.6125 55.3137V23.4867C60.6125 22.1332 59.55 21.0375 58.2375 21.0375H17.2375C15.925 21.0375 14.8625 22.1332 14.8625 23.4867V55.3395C14.8625 56.693 15.925 57.7887 17.2375 57.7887H40.1125C41.05 57.7887 41.8125 58.575 41.8125 59.5418C41.8125 60.5086 41.05 61.2949 40.1125 61.2949H17.2375C14.0625 61.2949 11.475 58.6266 11.475 55.3524V23.4867C11.475 20.2125 14.0625 17.5442 17.2375 17.5442H58.2375C61.4125 17.5442 64 20.2125 64 23.4867V55.3395C64 58.6008 61.4125 61.2692 58.2375 61.2692Z" fill="#2D527C"/>
<path d="M23.8375 53.1094C22.2125 53.1094 20.875 51.7301 20.875 50.0543V28.759C20.875 27.0832 22.2125 25.7039 23.8375 25.7039C25.4625 25.7039 26.8 27.0832 26.8 28.759V50.0543C26.7875 51.7301 25.4625 53.1094 23.8375 53.1094Z" fill="#CEE8FA"/>
<path d="M23.8375 54.8496C21.275 54.8496 19.1875 52.6969 19.1875 50.0543V28.759C19.1875 26.1164 21.275 23.9637 23.8375 23.9637C26.4 23.9637 28.4875 26.1164 28.4875 28.759V50.0543C28.4875 52.6969 26.4 54.8496 23.8375 54.8496ZM23.8375 27.457C23.1375 27.457 22.575 28.0371 22.575 28.759V50.0543C22.575 50.7762 23.1375 51.3562 23.8375 51.3562C24.5375 51.3562 25.1 50.7762 25.1 50.0543V28.759C25.1 28.0371 24.525 27.457 23.8375 27.457Z" fill="#F0BF5F"/>
<path d="M37.7375 53.1094C36.1125 53.1094 34.775 51.7301 34.775 50.0543V28.759C34.775 27.0832 36.1125 25.7039 37.7375 25.7039C39.3625 25.7039 40.7 27.0832 40.7 28.759V50.0543C40.7 51.7301 39.375 53.1094 37.7375 53.1094Z" fill="#CEE8FA"/>
<path d="M37.7375 54.8496C35.175 54.8496 33.0875 52.6969 33.0875 50.0543V28.759C33.0875 26.1164 35.175 23.9637 37.7375 23.9637C40.3 23.9637 42.3875 26.1164 42.3875 28.759V50.0543C42.4 52.6969 40.3125 54.8496 37.7375 54.8496ZM37.7375 27.457C37.0375 27.457 36.475 28.0371 36.475 28.759V50.0543C36.475 50.7762 37.0375 51.3562 37.7375 51.3562C38.4375 51.3562 39 50.7762 39 50.0543V28.759C39 28.0371 38.4375 27.457 37.7375 27.457Z" fill="#F0BF5F"/>
<path d="M51.65 53.1094C50.025 53.1094 48.6875 51.7301 48.6875 50.0543V28.759C48.6875 27.0832 50.025 25.7039 51.65 25.7039C53.275 25.7039 54.6125 27.0832 54.6125 28.759V50.0543C54.6125 51.7301 53.275 53.1094 51.65 53.1094Z" fill="#CEE8FA"/>
<path d="M51.65 54.8496C49.0875 54.8496 47 52.6969 47 50.0543V28.759C47 26.1164 49.0875 23.9637 51.65 23.9637C54.2125 23.9637 56.3 26.1164 56.3 28.759V50.0543C56.3 52.6969 54.2125 54.8496 51.65 54.8496ZM51.65 27.457C50.95 27.457 50.3875 28.0371 50.3875 28.759V50.0543C50.3875 50.7762 50.95 51.3562 51.65 51.3562C52.35 51.3562 52.9125 50.7762 52.9125 50.0543V28.759C52.9125 28.0371 52.35 27.457 51.65 27.457Z" fill="#F0BF5F"/>
<path d="M13.175 29.7129H7.28746C6.34996 29.7129 5.58746 28.9266 5.58746 27.9598C5.58746 26.993 6.34996 26.2066 7.28746 26.2066H13.175C14.1125 26.2066 14.875 26.993 14.875 27.9598C14.875 28.9266 14.1125 29.7129 13.175 29.7129Z" fill="#2D527C"/>
<path d="M13.175 52.5938H7.28746C6.34996 52.5938 5.58746 51.8074 5.58746 50.8406C5.58746 49.8738 6.34996 49.0875 7.28746 49.0875H13.175C14.1125 49.0875 14.875 49.8738 14.875 50.8406C14.875 51.8074 14.1125 52.5938 13.175 52.5938Z" fill="#2D527C"/>
<path d="M5.92498 32.4199C4.98748 32.4199 4.22498 31.6336 4.22498 30.6668V11.9754C4.22498 11.0086 4.98748 10.2223 5.92498 10.2223C6.86248 10.2223 7.62498 11.0215 7.62498 11.9754V30.6668C7.62498 31.6336 6.86248 32.4199 5.92498 32.4199Z" fill="#F0BF5F"/>
<path d="M5.92498 61.2691C4.98748 61.2691 4.22498 60.4828 4.22498 59.516V39.4066C4.22498 38.4398 4.98748 37.6535 5.92498 37.6535C6.86248 37.6535 7.62498 38.4398 7.62498 39.4066V59.516C7.62498 60.4828 6.86248 61.2691 5.92498 61.2691Z" fill="#2D527C"/>
<path d="M10.175 6.48396H1.70001V15.9199H10.175V6.48396Z" fill="#CEE8FA"/>
<path d="M10.1625 17.6602H1.7C0.7625 17.6602 0 16.8738 0 15.9071V6.48401C0 5.51721 0.7625 4.73088 1.7 4.73088H10.175C11.1125 4.73088 11.875 5.51721 11.875 6.48401V15.9199C11.8625 16.8738 11.1 17.6602 10.1625 17.6602ZM3.3875 14.1668H8.475V8.22424H3.3875V14.1668Z" fill="#2D527C"/>
</svg>

<svg width="64" height="66" fill="none" xmlns="http://www.w3.org/2000/svg"><path d="M58.237 61.27h-8.8c-.937 0-1.7-.787-1.7-1.754s.763-1.753 1.7-1.753h8.8c1.313 0 2.375-1.096 2.375-2.45V23.488c0-1.354-1.062-2.45-2.375-2.45h-41c-1.312 0-2.374 1.096-2.374 2.45V55.34c0 1.353 1.062 2.449 2.375 2.449h22.874c.938 0 1.7.786 1.7 1.753 0 .967-.762 1.753-1.7 1.753H17.237c-3.174 0-5.762-2.668-5.762-5.943V23.487c0-3.274 2.588-5.943 5.763-5.943h41c3.175 0 5.762 2.668 5.762 5.943V55.34c0 3.26-2.587 5.93-5.763 5.93Z" fill="#2D527C"/><path d="M23.837 53.11c-1.625 0-2.962-1.38-2.962-3.056V28.76c0-1.676 1.337-3.055 2.962-3.055 1.625 0 2.963 1.38 2.963 3.055v21.295c-.012 1.676-1.338 3.055-2.963 3.055Z" fill="#CEE8FA"/><path d="M23.837 54.85c-2.562 0-4.65-2.153-4.65-4.796V28.76c0-2.643 2.088-4.795 4.65-4.795 2.563 0 4.65 2.152 4.65 4.795v21.295c0 2.643-2.087 4.796-4.65 4.796Zm0-27.393c-.7 0-1.262.58-1.262 1.302v21.295c0 .722.563 1.302 1.262 1.302.7 0 1.263-.58 1.263-1.302V28.76c0-.722-.575-1.302-1.263-1.302Z" fill="#F0BF5F"/><path d="M37.737 53.11c-1.625 0-2.962-1.38-2.962-3.056V28.76c0-1.676 1.337-3.055 2.962-3.055 1.625 0 2.963 1.38 2.963 3.055v21.295c0 1.676-1.325 3.055-2.963 3.055Z" fill="#CEE8FA"/><path d="M37.737 54.85c-2.562 0-4.65-2.153-4.65-4.796V28.76c0-2.643 2.088-4.795 4.65-4.795 2.563 0 4.65 2.152 4.65 4.795v21.295c.013 2.643-2.075 4.796-4.65 4.796Zm0-27.393c-.7 0-1.262.58-1.262 1.302v21.295c0 .722.563 1.302 1.262 1.302.7 0 1.263-.58 1.263-1.302V28.76c0-.722-.563-1.302-1.263-1.302Z" fill="#F0BF5F"/><path d="M51.65 53.11c-1.625 0-2.962-1.38-2.962-3.056V28.76c0-1.676 1.337-3.055 2.962-3.055 1.625 0 2.962 1.38 2.962 3.055v21.295c0 1.676-1.337 3.055-2.962 3.055Z" fill="#CEE8FA"/><path d="M51.65 54.85c-2.563 0-4.65-2.153-4.65-4.796V28.76c0-2.643 2.087-4.795 4.65-4.795s4.65 2.152 4.65 4.795v21.295c0 2.643-2.087 4.796-4.65 4.796Zm0-27.393c-.7 0-1.262.58-1.262 1.302v21.295c0 .722.562 1.302 1.262 1.302s1.263-.58 1.263-1.302V28.76c0-.722-.563-1.302-1.263-1.302Z" fill="#F0BF5F"/><path d="M13.175 29.713H7.287c-.937 0-1.7-.786-1.7-1.753 0-.967.763-1.753 1.7-1.753h5.888c.938 0 1.7.786 1.7 1.753 0 .967-.762 1.753-1.7 1.753ZM13.175 52.594H7.287c-.937 0-1.7-.787-1.7-1.753 0-.967.763-1.754 1.7-1.754h5.888c.938 0 1.7.787 1.7 1.754 0 .966-.762 1.753-1.7 1.753Z" fill="#2D527C"/><path d="M5.925 32.42c-.938 0-1.7-.786-1.7-1.753V11.975c0-.966.762-1.753 1.7-1.753.937 0 1.7.8 1.7 1.753v18.692c0 .967-.763 1.753-1.7 1.753Z" fill="#F0BF5F"/><path d="M5.925 61.27c-.938 0-1.7-.787-1.7-1.754v-20.11c0-.966.762-1.752 1.7-1.752.937 0 1.7.786 1.7 1.753v20.109c0 .967-.763 1.753-1.7 1.753Z" fill="#2D527C"/><path d="M10.175 6.484H1.7v9.436h8.475V6.484Z" fill="#CEE8FA"/><path d="M10.162 17.66H1.7c-.938 0-1.7-.786-1.7-1.753V6.484c0-.967.762-1.753 1.7-1.753h8.475c.938 0 1.7.786 1.7 1.753v9.436c-.012.954-.775 1.74-1.713 1.74Zm-6.775-3.493h5.088V8.224H3.388v5.943Z" fill="#2D527C"/></svg>
